svg/arrow_left_top_bold.svg

<svg xmlns="http://www.w3.org/2000/svg" viewBox="0 0 24 24"><path d="M21 21h-4v-7.5c0-1.93-1.57-3.5-3.5-3.5H11v4L4 8l7-6v4h2.5c4.14 0 7.5 3.36 7.5 7.5z"/></svg>

<svg xmlns="http://www.w3.org/2000/svg" id="mdi-arrow-left-top-bold" viewBox="0 0 24 24"><path d="M21 21H17V13.5C17 11.57 15.43 10 13.5 10H11V14L4 8L11 2V6H13.5C17.64 6 21 9.36 21 13.5V21Z" /></svg>
